symbols/web/calendar_month/materialsymbolsrounded/calendar_month_wght300gradN25_48px.svg

<svg xmlns="http://www.w3.org/2000/svg" height="48" width="48"><path d="M24 28.15q-.75 0-1.25-.525t-.5-1.225q0-.75.5-1.25t1.25-.5q.75 0 1.25.5t.5 1.25q0 .7-.5 1.225-.5.525-1.25.525Zm-8 0q-.75 0-1.25-.525t-.5-1.225q0-.75.5-1.25t1.25-.5q.75 0 1.25.5t.5 1.25q0 .7-.5 1.225-.5.525-1.25.525Zm16 0q-.75 0-1.25-.525t-.5-1.225q0-.75.5-1.25t1.25-.5q.75 0 1.25.5t.5 1.25q0 .7-.5 1.225-.5.525-1.25.525ZM24 36q-.75 0-1.25-.525t-.5-1.225q0-.75.5-1.25t1.25-.5q.75 0 1.25.5t.5 1.25q0 .7-.5 1.225Q24.75 36 24 36Zm-8 0q-.75 0-1.25-.525t-.5-1.225q0-.75.5-1.25t1.25-.5q.75 0 1.25.5t.5 1.25q0 .7-.5 1.225Q16.75 36 16 36Zm16 0q-.75 0-1.25-.525t-.5-1.225q0-.75.5-1.25t1.25-.5q.75 0 1.25.5t.5 1.25q0 .7-.5 1.225Q32.75 36 32 36ZM9.95 42.85q-1.15 0-1.975-.85-.825-.85-.825-1.95V11.2q0-1.15.825-1.975Q8.8 8.4 9.95 8.4h3.75V6.1q0-.5.35-.85t.85-.35q.55 0 .9.35t.35.85v2.3H31.9V6.05q0-.5.35-.825.35-.325.85-.325t.85.35q.35.35.35.8V8.4h3.75q1.15 0 1.975.825.825.825.825 1.975v28.85q0 1.1-.825 1.95-.825.85-1.975.85Zm0-2.2h28.1q.25 0 .425-.175t.175-.425V20.3H9.35v19.75q0 .25.175.425t.425.175Zm-.6-22.55h29.3v-6.9q0-.25-.175-.425t-.425-.175H9.95q-.25 0-.425.175t-.175.425Zm0 0v-7.5 7.5Z"/></svg>

<svg xmlns="http://www.w3.org/2000/svg" height="48" width="48"><path d="M24 28.15Q23.25 28.15 22.75 27.625Q22.25 27.1 22.25 26.4Q22.25 25.65 22.75 25.15Q23.25 24.65 24 24.65Q24.75 24.65 25.25 25.15Q25.75 25.65 25.75 26.4Q25.75 27.1 25.25 27.625Q24.75 28.15 24 28.15ZM16 28.15Q15.25 28.15 14.75 27.625Q14.25 27.1 14.25 26.4Q14.25 25.65 14.75 25.15Q15.25 24.65 16 24.65Q16.75 24.65 17.25 25.15Q17.75 25.65 17.75 26.4Q17.75 27.1 17.25 27.625Q16.75 28.15 16 28.15ZM32 28.15Q31.25 28.15 30.75 27.625Q30.25 27.1 30.25 26.4Q30.25 25.65 30.75 25.15Q31.25 24.65 32 24.65Q32.75 24.65 33.25 25.15Q33.75 25.65 33.75 26.4Q33.75 27.1 33.25 27.625Q32.75 28.15 32 28.15ZM24 36Q23.25 36 22.75 35.475Q22.25 34.95 22.25 34.25Q22.25 33.5 22.75 33Q23.25 32.5 24 32.5Q24.75 32.5 25.25 33Q25.75 33.5 25.75 34.25Q25.75 34.95 25.25 35.475Q24.75 36 24 36ZM16 36Q15.25 36 14.75 35.475Q14.25 34.95 14.25 34.25Q14.25 33.5 14.75 33Q15.25 32.5 16 32.5Q16.75 32.5 17.25 33Q17.75 33.5 17.75 34.25Q17.75 34.95 17.25 35.475Q16.75 36 16 36ZM32 36Q31.25 36 30.75 35.475Q30.25 34.95 30.25 34.25Q30.25 33.5 30.75 33Q31.25 32.5 32 32.5Q32.75 32.5 33.25 33Q33.75 33.5 33.75 34.25Q33.75 34.95 33.25 35.475Q32.75 36 32 36ZM9.95 42.85Q8.8 42.85 7.975 42Q7.15 41.15 7.15 40.05V11.2Q7.15 10.05 7.975 9.225Q8.8 8.4 9.95 8.4H13.7V6.1Q13.7 5.6 14.05 5.25Q14.4 4.9 14.9 4.9Q15.45 4.9 15.8 5.25Q16.15 5.6 16.15 6.1V8.4H31.9V6.05Q31.9 5.55 32.25 5.225Q32.6 4.9 33.1 4.9Q33.6 4.9 33.95 5.25Q34.3 5.6 34.3 6.05V8.4H38.05Q39.2 8.4 40.025 9.225Q40.85 10.05 40.85 11.2V40.05Q40.85 41.15 40.025 42Q39.2 42.85 38.05 42.85ZM9.95 40.65H38.05Q38.3 40.65 38.475 40.475Q38.65 40.3 38.65 40.05V20.3H9.35V40.05Q9.35 40.3 9.525 40.475Q9.7 40.65 9.95 40.65ZM9.35 18.1H38.65V11.2Q38.65 10.95 38.475 10.775Q38.3 10.6 38.05 10.6H9.95Q9.7 10.6 9.525 10.775Q9.35 10.95 9.35 11.2ZM9.35 18.1V11.2Q9.35 10.95 9.35 10.775Q9.35 10.6 9.35 10.6Q9.35 10.6 9.35 10.775Q9.35 10.95 9.35 11.2V18.1Z"/></svg>
